X: 7638
T:Polska
R:Polska
O:Sweden
M:3/4
D:Filarfolket
K:Am
(3A^cd dA f>g|e>d d<^c e2|(3ddd FG A2|(3BGB A4::
(3AcB B<G G2|GF FA A2|(3AcB B<G G2|GF FA A>f|\
(3ege df af|(3e^ce d4:|
